**kern	**kern	**dynam
*part1	*part1	*part1
*staff2	*staff1	*
*I"Piano	*	*
*clefG2	*clefG2	*
*k[f#c#g#d#]	*k[f#c#g#d#]	*
=1	=1	=1
(8gnL	8eeL] 8cccn]	.
8ccn)	([8ggn 8bb	.
[8cnJ	((8ggJ]) 8aa#X	.
=	=	=
(8cL]	8gg#XL)) 8bb	.
8B)	8ee' 8gg#	.
[8bJ	((8gg#J 8eee	f >
=	=	=
!	!LO:TX:a:i:t=rit.	!
8b]	((8aaL)) 8ddd#	.
*clefF4	*	*
8BBBL	8ddd#J)) 8fff#	] p
[8BBJ	(8d# 8f#	<
=	=	=
8BBL]	8d#L 8f##X	[ mf >
8E	8eJ) 8g#	.
!	!LO:TX:a:i:t=Tempo I.	!
[8EEJ	(8gg# 8bb	] p
=	=	=
(8EEL]	8eeL 8gg#	.
8E	8cc# 8ee	.
[8EEJ)	8g#J 8cc#	.
=	=	=
*	*^	*
(8EEL]	8.bL	4.gn	.
8CC#	.	.	.
.	16a#XK	.	.
[8C#J)	8a#J)	.	.
*	*v	*v	*
=	=	=
(8C#L]	(8eeL 8ggn	.
8FF#	8ddn 8ff#	.
[8F#J)	8cc#J 8ee	.
=	=	=
*-	*-	*-
!!!system-decoration: {(s1,s2)}
